svg/up_round.svg

<svg xmlns="http://www.w3.org/2000/svg" viewBox="0 0 32 32" enable-background="new 0 0 32 32"><path d="M 16 3 C 8.8321429 3 3 8.8321429 3 16 C 3 23.167857 8.8321429 29 16 29 C 23.167857 29 29 23.167857 29 16 C 29 8.8321429 23.167857 3 16 3 z M 16 5 C 22.086977 5 27 9.9130231 27 16 C 27 22.086977 22.086977 27 16 27 C 9.9130231 27 5 22.086977 5 16 C 5 9.9130231 9.9130231 5 16 5 z M 16 8.875 L 15.28125 9.59375 L 9.59375 15.28125 L 11 16.71875 L 15 12.71875 L 15 23 L 17 23 L 17 12.71875 L 21 16.71875 L 22.40625 15.28125 L 16.71875 9.59375 L 16 8.875 z" color="#000" overflow="visible" enable-background="accumulate"/></svg>

<svg xmlns="http://www.w3.org/2000/svg" viewBox="0 0 32 32"><path style="text-indent:0;text-align:start;line-height:normal;text-transform:none;block-progression:tb;-inkscape-font-specification:Bitstream Vera Sans" d="M16 3C8.832 3 3 8.832 3 16s5.832 13 13 13 13-5.832 13-13S23.168 3 16 3zm0 2c6.087 0 11 4.913 11 11s-4.913 11-11 11S5 22.087 5 16 9.913 5 16 5zm0 3.875l-.72.72-5.686 5.686L11 16.72l4-4V23h2V12.72l4 4 1.406-1.44-5.687-5.686-.72-.72z" color="#000" overflow="visible" font-family="Bitstream Vera Sans"/></svg>
